X:93
T: Schloss in Oesterreich
N: Q1024L
O: Mitteleuropa, Deutschland
N: Verzierung (Triller) in der zweiten Zeile. Variante (Ursprung ?)
N: von Q0024ON ff. Anderes Lied.
R: Ballade, ??
M: 3/4
L: 1/8
K: D
A | AAAFGE | FFFD
EC | DAAGGF | F2E2z
A | AdfdAF | GEe3
c | dBAFGE | E2D2z

@@@ Tune index: 722
